X: 7520
T: Cobbler's, The
R: polka
M: 2/4
K: Aminor
A/B/|:cA eA|cd e/f/e/d/|cA eA|B/A/(3G/A/B/ de/d/|
cA eA|cd e/f/e/d/|c>d e/d/c|1 A2 AA/B/:|2 A2 A2||
|:e2 ag|ed e/f/e/d/|cA eA|B/A/(3G/A/B/ dB/d/|
e2 ag|ed e/f/e/d/|c>d e/d/c|1 A2 A2:|2 A2 AA/B/||

